X: 10
T: Crooked Stovepipe #3, The
I: Crooked Stovepipe, The	S-C	G	square
%C: S-C
C: Ralph Page
M: C|
Z: Transcribed to abc by Mary Lou Knack
R: square
K: G
|:\
"G"G2B2 BcdB | G2B2 BcdB | G2B2 "E7"e3B | "Am"d2c2 "D7"cdcA |\
"D7"F2A2 ABcA | F2A2 ABcd | "C"e3d "D7"e2f2 |1 "G"g2fe dcBA :|2 "G"g2g2 "D7"a2^a2 |]
|:\
"G"b3c' b2a2 | g4 g2f2 | "C"e2e2 "Am"f2g2 | "A7"a6 b2 |\
"D7"c'3d' c'2a2 | f6 e2 | d2d2 e2f2 |1 "G"g2g2 "D7"a2^a2 :|2 "G"g2fe dcBA |]
% text 2/10/00		Formerly R-86
